X:227
T:Sir Adam Ferguson's Reel
T:The Lads of Leith
T:Sic a Wife as I Hae Gotten
S:J.Riddell via Murdoch Henderson
Z:Nigel Gatherer
M:4/4
L:1/8
K:Em
B,EEF E/F/G FE | A,DDE D/E/F ED | GFED EFGA | Bedc B2 E2 :|]
eB BA/B/ gfed | Adfa gfed | eB BA/B/ gfed | g>bag f2 ed |
eB BA/B/ gfed | Adfa gfed | g>bge fafd | gfed e2 E2 |]
